dist/svg/cards-line.svg

<svg xmlns="http://www.w3.org/2000/svg" viewBox="0 0 24 24"><path d="M5.617 3.283q-.873.101-1.552.781a2.74 2.74 0 0 0-.696 1.116l-.109.32v13l.109.32c.151.445.362.783.695 1.116s.672.544 1.116.695l.32.108 3.3.021 3.3.02 1.34.308c1.541.354 1.706.378 2.141.312 1.022-.153 1.887-.848 2.215-1.78.046-.132.707-2.94 1.469-6.24 1.331-5.766 1.385-6.016 1.384-6.4 0-.456-.085-.784-.315-1.225-.299-.572-.836-1.06-1.402-1.276-.128-.049-1.284-.302-2.569-.563-1.286-.261-2.42-.501-2.52-.534a3 3 0 0 0-.463-.101c-.34-.048-7.347-.046-7.763.002m7.666 1.538c.447.094.799.413.913.829.035.127.044 1.753.035 6.43l-.011 6.26-.093.189c-.132.268-.416.534-.674.63-.211.079-.304.081-3.953.081s-3.742-.002-3.953-.081c-.258-.096-.542-.362-.674-.63l-.093-.189-.011-6.26c-.009-4.677 0-6.303.035-6.43.093-.34.433-.7.782-.828.238-.087 7.282-.089 7.697-.001m-.463.455a.67.67 0 0 0-.394.244c-.152.181-.186.359-.186.98 0 .308.019.627.042.709.151.543.84.719 1.242.316.197-.197.236-.364.236-1.025 0-.622-.034-.799-.186-.98a.78.78 0 0 0-.754-.244m4.215.304c.708.142 1.354.294 1.436.336.226.115.448.353.563.601.19.414.228.215-1.265 6.667-.989 4.274-1.39 5.941-1.466 6.09a1.24 1.24 0 0 1-1.108.638l-.211-.012.128-.146c.203-.23.402-.587.519-.934l.109-.32v-6.4c0-3.52-.013-6.485-.029-6.59s-.014-.19.004-.19.613.117 1.32.26M9.051 8.696c-.404.249-.97.675-1.468 1.105-1.348 1.164-1.9 2.314-1.555 3.239.213.571.712.992 1.356 1.143.327.078.898.058 1.171-.04.096-.035.182-.063.19-.063s.015.14.015.311c0 .36.067.521.295.705.259.211.687.188.959-.051.153-.134.226-.348.226-.663 0-.166.007-.302.015-.302s.094.028.19.063c.273.098.844.118 1.171.04.644-.151 1.143-.572 1.356-1.143.271-.728-.011-1.592-.826-2.534-.427-.492-1.515-1.389-2.188-1.804-.393-.243-.522-.244-.907-.006m1.007 1.292c.592.443 1.351 1.158 1.606 1.515.213.299.366.622.399.844.093.619-.601 1.047-1.346.83a1.9 1.9 0 0 1-.734-.417c-.212-.193-.306-.24-.483-.24s-.271.047-.483.24c-.466.425-1.066.58-1.548.4-.328-.123-.549-.411-.549-.717 0-.382.382-.979 1.028-1.607.433-.42 1.457-1.235 1.552-1.235.022 0 .273.174.558.387M5.82 16.276a.73.73 0 0 0-.538.515c-.054.193-.054 1.225 0 1.418.151.543.84.719 1.242.316.197-.197.236-.364.236-1.025 0-.622-.034-.799-.186-.98a.78.78 0 0 0-.754-.244" fill-rule="evenodd"/></svg>

<svg fill="none" xmlns="http://www.w3.org/2000/svg" viewBox="0 0 24 24"><path d="M5.617 3.283 C 5.034 3.351,4.519 3.610,4.065 4.064 C 3.732 4.396,3.521 4.735,3.369 5.180 L 3.260 5.500 3.260 12.000 L 3.260 18.500 3.369 18.820 C 3.520 19.265,3.731 19.603,4.064 19.936 C 4.397 20.269,4.736 20.480,5.180 20.631 L 5.500 20.739 8.800 20.760 L 12.100 20.780 13.440 21.088 C 14.981 21.442,15.146 21.466,15.581 21.400 C 16.603 21.247,17.468 20.552,17.796 19.620 C 17.842 19.488,18.503 16.680,19.265 13.380 C 20.596 7.614,20.650 7.364,20.649 6.980 C 20.649 6.524,20.564 6.196,20.334 5.755 C 20.035 5.183,19.498 4.695,18.932 4.479 C 18.804 4.430,17.648 4.177,16.363 3.916 C 15.077 3.655,13.943 3.415,13.843 3.382 C 13.742 3.348,13.534 3.303,13.380 3.281 C 13.040 3.233,6.033 3.235,5.617 3.283 M13.283 4.821 C 13.730 4.915,14.082 5.234,14.196 5.650 C 14.231 5.777,14.240 7.403,14.231 12.080 L 14.220 18.340 14.127 18.529 C 13.995 18.797,13.711 19.063,13.453 19.159 C 13.242 19.238,13.149 19.240,9.500 19.240 C 5.851 19.240,5.758 19.238,5.547 19.159 C 5.289 19.063,5.005 18.797,4.873 18.529 L 4.780 18.340 4.769 12.080 C 4.760 7.403,4.769 5.777,4.804 5.650 C 4.897 5.310,5.237 4.950,5.586 4.822 C 5.824 4.735,12.868 4.733,13.283 4.821 M12.820 5.276 C 12.643 5.320,12.541 5.384,12.426 5.520 C 12.274 5.701,12.240 5.879,12.240 6.500 C 12.240 6.808,12.259 7.127,12.282 7.209 C 12.433 7.752,13.122 7.928,13.524 7.525 C 13.721 7.328,13.760 7.161,13.760 6.500 C 13.760 5.878,13.726 5.701,13.574 5.520 C 13.398 5.311,13.087 5.210,12.820 5.276 M17.035 5.580 C 17.743 5.722,18.389 5.874,18.471 5.916 C 18.697 6.031,18.919 6.269,19.034 6.517 C 19.224 6.931,19.262 6.732,17.769 13.184 C 16.780 17.458,16.379 19.125,16.303 19.274 C 16.107 19.661,15.628 19.937,15.195 19.912 L 14.984 19.900 15.112 19.754 C 15.315 19.524,15.514 19.167,15.631 18.820 L 15.740 18.500 15.740 12.100 C 15.740 8.580,15.727 5.615,15.711 5.510 C 15.695 5.405,15.697 5.320,15.715 5.320 C 15.734 5.320,16.328 5.437,17.035 5.580 M9.051 8.696 C 8.647 8.945,8.081 9.371,7.583 9.801 C 6.235 10.965,5.683 12.115,6.028 13.040 C 6.241 13.611,6.740 14.032,7.384 14.183 C 7.711 14.261,8.282 14.241,8.555 14.143 C 8.651 14.108,8.737 14.080,8.745 14.080 C 8.753 14.080,8.760 14.220,8.760 14.391 C 8.760 14.751,8.827 14.912,9.055 15.096 C 9.314 15.307,9.742 15.284,10.014 15.045 C 10.167 14.911,10.240 14.697,10.240 14.382 C 10.240 14.216,10.247 14.080,10.255 14.080 C 10.263 14.080,10.349 14.108,10.445 14.143 C 10.718 14.241,11.289 14.261,11.616 14.183 C 12.260 14.032,12.759 13.611,12.972 13.040 C 13.243 12.312,12.961 11.448,12.146 10.506 C 11.719 10.014,10.631 9.117,9.958 8.702 C 9.565 8.459,9.436 8.458,9.051 8.696 M10.058 9.988 C 10.650 10.431,11.409 11.146,11.664 11.503 C 11.877 11.802,12.030 12.125,12.063 12.347 C 12.156 12.966,11.462 13.394,10.717 13.177 C 10.450 13.099,10.196 12.955,9.983 12.760 C 9.771 12.567,9.677 12.520,9.500 12.520 C 9.323 12.520,9.229 12.567,9.017 12.760 C 8.551 13.185,7.951 13.340,7.469 13.160 C 7.141 13.037,6.920 12.749,6.920 12.443 C 6.920 12.061,7.302 11.464,7.948 10.836 C 8.381 10.416,9.405 9.601,9.500 9.601 C 9.522 9.601,9.773 9.775,10.058 9.988 M5.820 16.276 C 5.554 16.342,5.353 16.534,5.282 16.791 C 5.228 16.984,5.228 18.016,5.282 18.209 C 5.433 18.752,6.122 18.928,6.524 18.525 C 6.721 18.328,6.760 18.161,6.760 17.500 C 6.760 16.878,6.726 16.701,6.574 16.520 C 6.398 16.311,6.087 16.210,5.820 16.276 " stroke="none" fill-rule="evenodd" fill="currentColor"/></svg>
